!!!COM: Lassus, Orlandus
!!!CDT: 1532-1594/06/14
!!!OPR: Geistliche Psalmen mit dreyen Stimmen
!!!ONM: 1
!!!OTL@@LA: Beatus vir
!!!OTL-incipit@@DE: Selig zu preisen ist der mann
**kern	**text	**kern	**text	**kern	**text
*staff3	*staff3	*staff2	*staff2	*staff1	*staff1
*Ivox	*	*Ivox	*	*Ivox	*
*I"Bassus	*	*I"Tenor	*	*I"Cantus	*
*I'B	*	*I'T	*	*I'C	*
*clefC3	*	*clefC2	*	*clefG2	*
*k[]	*	*k[]	*	*k[]	*
*C:ion	*	*C:ion	*	*C:ion	*
*M2/1	*	*M2/1	*	*M2/1	*
*met(C|)	*	*met(C|)	*	*met(C|)	*
*MM180	*	*MM180	*	*MM180	*
=1	=1	=1	=1	=1	=1
*xywh-#127:141,59,2713,538	*	*xywh-#71:112,89,2701,526	*	*xywh-#11:125,74,2760,518	*
1r	.	00r	.	1dd	Se-
1g	Se-	.	.	2dd	-lig
.	.	.	.	2dd	zu
=2	=2	=2	=2	=2	=2
2g	-lig	.	.	1b	prei-
2g	zu	.	.	.	.
2e	prei-	.	.	2cc	-sen
2f	-sen	.	.	2a	ist
=3	=3	=3	=3	=3	=3
1e	ist	0r	.	2g	der
.	.	.	.	2a	.
1d	der	.	.	4b	.
.	.	.	.	4cc	.
.	.	.	.	8bL	.
.	.	.	.	8aJ	.
.	.	.	.	4b	.
=4	=4	=4	=4	=4	=4
1c	mann/	1g	Se-	2ee	man/
.	.	.	.	2ee	.
2r	.	2g	-lig	2dd	.
1c	ist	2g	zu	2ee	.
=5	=5	=5	=5	=5	=5
.	.	2e	prei-	2gg	ii
2.A	der	2f	-sen	2cc	.
*	*	*	*	*xywh-#11:117,579,2766,432	*
.	.	1e	ist	2cc	.
4B	.	.	.	.	.
2c	.	.	.	4g	.
.	.	.	.	4a	.
=6	=6	=6	=6	=6	=6
1G	mann/	1d	der	4b	.
.	.	.	.	4cc	.
.	.	.	.	2b	.
2r	.	1c	mann/	2cc	.
2e	der	.	.	2g	der
=7	=7	=7	=7	=7	=7
*xywh-#127:136,516,2707,491	*	*	*	*	*
2e	sich	0r	.	2b	sich
2a	ent-	.	.	2cc	ent-
4g	helt	.	.	2dd	-helt
4f#	.	.	.	.	.
1g	.	.	.	2dd	von
=8	=8	=8	=8	=8	=8
.	.	1c	der	2ee	den
2e	von	.	.	2gg	gott-
2.A	den	2e	sich	1cc	-lo-
.	.	2f	ent-	.	.
4A	gott-	.	.	.	.
=9	=9	=9	=9	=9	=9
2e	-lo-	2g	-helt	2b	-sen
2c	-sen/	2g	von	2ee	von
2r	.	2a	den	2cc	den
2G	und	2g	gott-	2b	gott-
=10	=10	=10	=10	=10	=10
*	*	*xywh-#71:102,593,2695,438	*	*	*
2A	wan-	1f	-lo-	2cc	-lo-
2B	-delt	.	.	2dd	sen/
1.c	nicht	1e	-sen/	2r	.
.	.	.	.	2g	und
=11	=11	=11	=11	=11	=11
*	*	*	*	*xywh-#11:117,988,2760,429	*
.	.	2r	.	2a	wan-
2B	im	2d	und	2b	-delt
2A	rath	2e	wan-	1cc	nicht
2a	der	2f	-delt	.	.
=12	=12	=12	=12	=12	=12
2e	bö-	2g	nicht	2b	im
2A	-sen	2e	im	1cc	rath
2r	.	2f	rath	.	.
2c	trit	2g	der	2ee	der
=13	=13	=13	=13	=13	=13
*xywh-#127:119,949,2704,465	*	*	*	*	*
1f	auch	1a	bö-	2dd	bö-
.	.	.	.	2cc	-sen/
1e	nicht	1g	-sen/	2r	.
.	.	.	.	2b	trit
=14	=14	=14	=14	=14	=14
2.c	auf	2r	.	1.ee	auch
.	.	2g	trit	.	.
4B	.	.	.	.	.
4A	.	1cc	auch	.	.
4B	.	.	.	.	.
4c	.	.	.	2ee	nit
4d	.	.	.	.	.
=15	=15	=15	=15	=15	=15
2e	.	1b	nicht	2gg	auff
2g	der	.	.	1dd	der
2f	sü-	2a	auf	.	.
2e	-der	2g	der	2cc	sün-
=16	=16	=16	=16	=16	=16
1d	ban/	2g	sün-	2b	-der
.	.	2f#	-der	2a	ban/
2r	.	1g	ban/	2r	.
2B	noch	.	.	2dd	noch
=17	=17	=17	=17	=17	=17
*	*	*	*xywh-#71:108,1003,2678,435	*	*
1c	sitzt	2r	.	1ee	sitzt
.	.	2g	noch	.	.
2r	.	2a	sitzt	2cc	bey
2f	noch	2a	bey	2.cc	giff-
=18	=18	=18	=18	=18	=18
2g	sitzt	2e	güff-	.	.
.	.	.	.	4b	.
2f	bey	2a	-tig	4cc	.
.	.	.	.	4dd	.
*	*	*	*	*xywh-#11:111,1388,2762,433	*
2.c	güff-	2g	bö-	4ee	.
.	.	.	.	4ff	.
.	.	2e	-sen	2gg	.
4c	-tig	.	.	.	.
=19	=19	=19	=19	=19	=19
2A	bö-	1f	rot-	2cc	-tig
2B	-sen	.	.	2dd	bö-
*xywh-#127:119,1357,2739,474	*	*	*	*	*
2c	rot-	0e	-ten/	4.g	-sen
.	.	.	.	16aL	.
.	.	.	.	16bJ	.
2A	-ten/	.	.	2cc	.
=20	=20	=20	=20	=20	=20
2r	.	.	.	0b	rot-
2g	da	.	.	.	.
2e	man	1r	.	.	.
2d	hon-	.	.	.	.
=21	=21	=21	=21	=21	=21
1.c	-schimpf-	2r	.	1ee	-ten/
.	.	2g	da	.	.
.	.	2e	man	1gg	da
2B	-lich	2d	hon-	.	.
=22	=22	=22	=22	=22	=22
2.g	weiß	2c	-schimpf-	2ee	man
.	.	2e	-lich	2cc	hon-
4g	zu	.	.	.	.
2a	spot-	2f	weiß	1cc	-schimpf-
2A	-ten/	2e	zu	.	.
=23	=23	=23	=23	=23	=23
2r	.	1d	spot-	2ff	-lich
2f	zu	.	.	2dd	weiß/
2g	spot-	0c	ten/	2r	.
2e	-ten/	.	.	2gg	da
=24	=24	=24	=24	=24	=24
2r	.	.	.	2.ee	man
2g	da	.	.	.	.
.	.	.	.	4dd	hon-
2.e	man	2r	.	2cc	-schimpf-
.	.	2g	.	2b	-lich
4d	hon-	.	.	.	.
=25	=25	=25	=25	=25	=25
*	*	*xywh-#71:108,1403,2691,458	*	*xywh-#11:121,1796,2746,459	*
2c	-schimpf-	2e	.	2.gg	weiß
2B	-lich	2d	.	.	.
.	.	.	.	4ff	.
*xywh-#127:95,1773,2756,459	*	*	*	*	*
1g	weiß	2c	.	4ee	.
.	.	.	.	4dd	.
.	.	2e	ii	4cc	.
.	.	.	.	4b	.
=26	=26	=26	=26	=26	=26
1r	.	2f	.	4a	.
.	.	.	.	4b	.
.	.	2e	.	1cc	.
1G	zu	1d	.	.	.
.	.	.	.	2b	zu
=27	=27	=27	=27	=27	=27
2.A	spot-	2c	.	2.cc	spot-
.	.	2e	zu	.	.
4G	.	.	.	4b	.
1F	.	4f	spot-	1a	.
.	.	4c	.	.	.
.	.	2f	.	.	.
=28	=28	=28	=28	=28	=28
0cll	ten.	0ell	ten.	0gll	ten.
==	==	==	==	==	==
*-	*-	*-	*-	*-	*-
!!!RDF**kern: l = terminal long
!!!RDF**kern: i = editorial accidental
!!!AGN: Psalm; Tricinium
!!!LIB: Ulenberg, Caspar
!!!LIB-CDT: 1548/12/24-1617/02/16
!!!YOR: https://mdz-nbn-resolving.de/details:bsb00075346
!!!YOO: München, Bayerische Staatsbibliothek
!!!URL-scan: https://www.digitale-sammlungen.de/de/view/bsb00075346?page=11 Cantus
!!!URL-scan: https://www.digitale-sammlungen.de/de/view/bsb00075346?page=71 Tenor
!!!URL-scan: https://www.digitale-sammlungen.de/de/view/bsb00075346?page=127 Bassus
!!!IIIF: https://api.digitale-sammlungen.de/iiif/presentation/v2/bsb00075346/manifest
!!!EED: Wolfgang Drescher
!!!END: 2022/02/17
!!!ENC: Wolfgang Drescher
!!!EEV: 2022/03/05
!!!title: @{ONM}. @{OTL} / <i>@{OTL-incipit@@DE}</i>